X: 9097
T: Da Skeklers
R: reel
M: 4/4
K: Adorian
cAAB cdec|d2cA d2ed|cAAB cdeg|fage d2ed|
cAAB cdec|d2cA d2ed|cAAB cdeg|fage d2ed:|
|:c2cc gcec|d2dd eage|c2cc gceg|fage d2ed|
c2cc gcec|d2dd eage|c2cc gceg|fage d2ed:|

